Newaita-dark/apps/64/datovka.svg

<svg height="64" viewBox="0 0 64 64" width="64" xmlns="http://www.w3.org/2000/svg" xmlns:xlink="http://www.w3.org/1999/xlink"><linearGradient id="a" gradientUnits="userSpaceOnUse" x1="31.75304" x2="31.75304" y1="56.067872" y2="58.71396000006"><stop offset="0" stop-opacity=".27451"/><stop offset="1" stop-opacity="0"/></linearGradient><linearGradient id="b"><stop offset="0" stop-opacity=".313726"/><stop offset=".222222" stop-opacity=".27451"/><stop offset="1" stop-opacity="0"/></linearGradient><radialGradient id="c" cx="450.908936" cy="189.579361" gradientTransform="matrix(.00000035 -.156265 -.281277 -.0000002 104.261296 127.190665)" gradientUnits="userSpaceOnUse" r="21.166656" xlink:href="#b"/><radialGradient id="d" cx="450.908936" cy="189.579361" gradientTransform="matrix(-.00000035 .156265 .281277 .0000002 -40.755227 -15.054958)" gradientUnits="userSpaceOnUse" r="21.166656" xlink:href="#b"/><radialGradient id="e" cx="450.908936" cy="189.579361" gradientTransform="matrix(-.00000035 -.156265 .281277 -.0000002 -40.755227 127.190665)" gradientUnits="userSpaceOnUse" r="21.166656" xlink:href="#b"/><radialGradient id="f" cx="450.908936" cy="189.579361" gradientTransform="matrix(.00000035 .156265 -.281277 .0000002 104.261293 -15.054959)" gradientUnits="userSpaceOnUse" r="21.166656" xlink:href="#b"/><linearGradient id="g" gradientUnits="userSpaceOnUse" x1="21.16869799994" x2="21.16869799994" y1="56.067868" y2="5.79221000013"><stop offset="0" stop-color="#2979ff"/><stop offset="1" stop-color="#42a5f5"/></linearGradient><linearGradient id="h" gradientUnits="userSpaceOnUse" x1="31.753056" x2="31.75305801764" y1="56.06789790428" y2="5.79222438278"><stop offset="0" stop-color="#ffa726"/><stop offset="1" stop-color="#ffb74d"/></linearGradient><path d="m11.90625 55.871094h39.691406v2.941406h-39.691406zm0 0" fill="url(#a)"/><path d="m51.597656 56.066406h5.292969v-2.644531h-5.292969zm0 0" fill="url(#c)"/><path d="m11.90625 56.066406h-5.292969v2.648438h5.292969zm0 0" fill="url(#d)"/><path d="m11.90625 56.066406h-5.292969v-2.644531h5.292969zm0 0" fill="url(#e)"/><path d="m51.597656 56.066406h5.292969v2.648438h-5.292969zm0 0" fill="url(#f)"/><path d="m9.261719 5.792969h44.984375c1.460937 0 2.644531 1.183593 2.644531 2.644531v44.984375c0 1.460937-1.183594 2.644531-2.644531 2.644531h-44.984375c-1.460938 0-2.648438-1.183594-2.648438-2.644531v-44.984375c0-1.460938 1.1875-2.644531 2.648438-2.644531zm0 0" fill="url(#g)"/><path d="m26.75 30.929688-19.84375 19.847656h-.292969v2.644531c0 1.464844 1.183594 2.644531 2.648438 2.644531h44.984375c1.464844 0 2.644531-1.179687 2.644531-2.644531v-2.644531h-.289063l-19.84375-19.847656-3.132812 3.132812c-1.039062 1.035156-2.707031 1.035156-3.742188 0zm0 0" fill-opacity=".078431"/><path d="m9.261719 5.984375c-1.464844 0-2.648438 1.179687-2.648438 2.644531v.332032c0-1.464844 1.183594-2.648438 2.648438-2.648438h44.984375c1.464844 0 2.644531 1.183594 2.644531 2.648438v-.332032c0-1.464844-1.179687-2.644531-2.644531-2.644531zm0 0" fill="#e6e6e6" fill-opacity=".392157"/><path d="m9.261719 55.871094c-1.464844 0-2.648438-1.179688-2.648438-2.644532v-.332031c0 1.464844 1.183594 2.644531 2.648438 2.644531h44.984375c1.464844 0 2.644531-1.179687 2.644531-2.644531v.332031c0 1.464844-1.179687 2.644532-2.644531 2.644532zm0 0" fill-opacity=".196078"/><path d="m9.261719 5.792969c-1.464844 0-2.648438 1.179687-2.648438 2.644531v2.648438h.292969l22.976562 22.976562c1.035157 1.035156 2.703126 1.035156 3.742188 0l22.976562-22.976562h.289063v-2.648438c0-1.464844-1.179687-2.644531-2.644531-2.644531zm0 0" fill="#fff" fill-opacity=".117647"/><path d="m74.086675-168.660675h359.840637c11.686384 0 21.15423 9.467846 21.15423 21.15423v359.840637c0 11.686384-9.467846 21.154229-21.15423 21.154229h-359.840637c-11.686384 0-21.185477-9.467845-21.185477-21.154229v-359.840637c0-11.686384 9.499093-21.15423 21.185477-21.15423zm0 0" fill="none" stroke="#212121" stroke-linecap="round" stroke-width="3" transform="matrix(.125012 0 0 .125012 0 26.877566)"/><path d="m24.476562 14.316406c-.996093 0-1.847656.710938-2.027343 1.691406l-1.992188 10.953126h8.753907l.488281-2.777344c.257812-1.460938 2.070312-2.292969 3.082031-1.417969l4.941406 6.824219c.398438.34375.566406.890625.449219 1.464844-.109375.539062-.460937 1.042968-.949219 1.367187l-7.347656 6.820313c-1.320312.875-2.835938.042968-2.582031-1.414063l.492187-2.777344h-8.796875l-1.832031 10.0625c-.226562 1.265625.742188 2.429688 2.027344 2.429688h10.679687c9.167969 0 16.613281-7.445313 16.613281-16.613281 0-9.167969-7.445312-16.613282-16.613281-16.613282zm0 0" fill="url(#h)"/><path d="m24.476562 14.316406c-.996093 0-1.847656.710938-2.027343 1.691406l-1.992188 10.953126h.164063l1.828125-10.066407c.179687-.980469 1.03125-1.691406 2.027343-1.691406h5.386719c9.019531 0 16.371094 7.207031 16.605469 16.171875.003906-.148438.007812-.296875.007812-.445312 0-9.167969-7.445312-16.613282-16.613281-16.613282zm13.671876 16.835938c-.128907.503906-.464844.964844-.925782 1.269531l-7.347656 6.820313c-1.078125.714843-2.285156.292968-2.554688-.679688l-.027343.152344c-.253907 1.457031 1.261719 2.289062 2.582031 1.414062l7.347656-6.820312c.488282-.324219.839844-.828125.949219-1.367188.054687-.277344.046875-.546875-.023437-.789062zm-19.160157 3.898437-1.832031 10.0625c-.050781.28125-.042969.554688.015625.8125l1.816406-9.988281h8.640625l.15625-.886719zm0 0" fill="#fff" fill-opacity=".392157"/><path d="m31.789062 22.410156c-.917968 0-1.902343.722656-2.089843 1.773438l-.488281 2.777344h-8.511719l-.242188 1.324218h8.753907l.488281-2.78125c.257812-1.457031 2.070312-2.289062 3.082031-1.414062l4.941406 6.820312c.152344.132813.269532.292969.351563.472656.042969-.109374.074219-.21875.097656-.328124.117187-.574219-.050781-1.121094-.449219-1.464844l-4.941406-6.824219c-.285156-.246094-.632812-.355469-.992188-.355469zm14.675782 9.179688c-.351563 8.863281-7.65625 15.953125-16.601563 15.953125h-10.679687c-.9375 0-1.703125-.617188-1.964844-1.441407l-.0625.335938c-.226562 1.265625.742188 2.429688 2.027344 2.429688h10.679687c9.167969 0 16.613281-7.445313 16.613281-16.613282 0-.222656-.003906-.441406-.011718-.664062zm-18.914063 4.78125-.257812 1.457031c-.058594.332031-.023438.628906.078125.882813l.414062-2.339844zm0 0" fill-opacity=".235294"/><path d="m740.008112 432.832705c-30.115236 0-55.86081 21.494012-61.293363 51.136852l-60.230472 331.149496h264.65978l14.76237-83.968364c7.794532-44.169012 62.592452-69.324092 93.180083-42.869924l149.395191 206.318891c12.046094 10.392709 17.124349 26.926564 13.58138 44.287112-3.306771 16.297657-13.935677 31.532424-28.698048 41.334638l-222.144152 206.200792c-39.91745 26.454168-85.739848 1.299088-78.063416-42.751825l14.88047-83.968364h-265.958868l-55.388415 304.222932c-6.84974 38.264065 22.438804 73.457556 61.293363 73.457556h322.882569c277.17827 0 502.274896-225.096626 502.274896-502.274896s-225.096626-502.274896-502.274896-502.274896zm0 0" fill="none" stroke="#212121" stroke-linecap="round" stroke-linejoin="round" stroke-width="11.338583" transform="scale(.0330761)"/></svg>

<?xml version="1.0" encoding="UTF-8"?>
<svg xmlns="http://www.w3.org/2000/svg" xmlns:xlink="http://www.w3.org/1999/xlink" width="64px" height="64px" viewBox="0 0 64 64" version="1.1">
<defs>
<linearGradient id="linear0" gradientUnits="userSpaceOnUse" x1="254" y1="233.5" x2="254" y2="254.666672" gradientTransform="matrix(0.125012,0,0,0.125012,-0.00000763012,26.87757)">
<stop offset="0" style="stop-color:rgb(0%,0%,0%);stop-opacity:0.27451;"/>
<stop offset="1" style="stop-color:rgb(0%,0%,0%);stop-opacity:0;"/>
</linearGradient>
<radialGradient id="radial0" gradientUnits="userSpaceOnUse" cx="450.908936" cy="189.579361" fx="450.908936" fy="189.579361" r="21.166656" gradientTransform="matrix(0.000000348341,-0.156265,-0.281277,-0.000000203077,104.261296,127.190665)">
<stop offset="0" style="stop-color:rgb(0%,0%,0%);stop-opacity:0.313726;"/>
<stop offset="0.222222" style="stop-color:rgb(0%,0%,0%);stop-opacity:0.27451;"/>
<stop offset="1" style="stop-color:rgb(0%,0%,0%);stop-opacity:0;"/>
</radialGradient>
<radialGradient id="radial1" gradientUnits="userSpaceOnUse" cx="450.908936" cy="189.579361" fx="450.908936" fy="189.579361" r="21.166656" gradientTransform="matrix(-0.000000348341,0.156265,0.281277,0.000000203077,-40.755227,-15.054958)">
<stop offset="0" style="stop-color:rgb(0%,0%,0%);stop-opacity:0.313726;"/>
<stop offset="0.222222" style="stop-color:rgb(0%,0%,0%);stop-opacity:0.27451;"/>
<stop offset="1" style="stop-color:rgb(0%,0%,0%);stop-opacity:0;"/>
</radialGradient>
<radialGradient id="radial2" gradientUnits="userSpaceOnUse" cx="450.908936" cy="189.579361" fx="450.908936" fy="189.579361" r="21.166656" gradientTransform="matrix(-0.000000348341,-0.156265,0.281277,-0.000000203077,-40.755227,127.190665)">
<stop offset="0" style="stop-color:rgb(0%,0%,0%);stop-opacity:0.313726;"/>
<stop offset="0.222222" style="stop-color:rgb(0%,0%,0%);stop-opacity:0.27451;"/>
<stop offset="1" style="stop-color:rgb(0%,0%,0%);stop-opacity:0;"/>
</radialGradient>
<radialGradient id="radial3" gradientUnits="userSpaceOnUse" cx="450.908936" cy="189.579361" fx="450.908936" fy="189.579361" r="21.166656" gradientTransform="matrix(0.000000348341,0.156265,-0.281277,0.000000203077,104.261293,-15.054959)">
<stop offset="0" style="stop-color:rgb(0%,0%,0%);stop-opacity:0.313726;"/>
<stop offset="0.222222" style="stop-color:rgb(0%,0%,0%);stop-opacity:0.27451;"/>
<stop offset="1" style="stop-color:rgb(0%,0%,0%);stop-opacity:0;"/>
</radialGradient>
<linearGradient id="linear1" gradientUnits="userSpaceOnUse" x1="169.333328" y1="233.5" x2="169.333328" y2="-168.666656" gradientTransform="matrix(0.125012,0,0,0.125012,0,26.877566)">
<stop offset="0" style="stop-color:rgb(16.078432%,47.450981%,100%);stop-opacity:1;"/>
<stop offset="1" style="stop-color:rgb(25.882354%,64.705884%,96.078432%);stop-opacity:1;"/>
</linearGradient>
<linearGradient id="linear2" gradientUnits="userSpaceOnUse" x1="960" y1="1695.118164" x2="960.000061" y2="175.118118" gradientTransform="matrix(0.0330761,0,0,0.0330761,0,0)">
<stop offset="0" style="stop-color:rgb(100%,65.490198%,14.901961%);stop-opacity:1;"/>
<stop offset="1" style="stop-color:rgb(100%,71.764708%,30.19608%);stop-opacity:1;"/>
</linearGradient>
</defs>
<g id="surface1">
<path style=" stroke:none;fill-rule:nonzero;fill:url(#linear0);" d="M 11.90625 55.871094 L 51.597656 55.871094 L 51.597656 58.8125 L 11.90625 58.8125 Z M 11.90625 55.871094 "/>
<path style=" stroke:none;fill-rule:nonzero;fill:url(#radial0);" d="M 51.597656 56.066406 L 56.890625 56.066406 L 56.890625 53.421875 L 51.597656 53.421875 Z M 51.597656 56.066406 "/>
<path style=" stroke:none;fill-rule:nonzero;fill:url(#radial1);" d="M 11.90625 56.066406 L 6.613281 56.066406 L 6.613281 58.714844 L 11.90625 58.714844 Z M 11.90625 56.066406 "/>
<path style=" stroke:none;fill-rule:nonzero;fill:url(#radial2);" d="M 11.90625 56.066406 L 6.613281 56.066406 L 6.613281 53.421875 L 11.90625 53.421875 Z M 11.90625 56.066406 "/>
<path style=" stroke:none;fill-rule:nonzero;fill:url(#radial3);" d="M 51.597656 56.066406 L 56.890625 56.066406 L 56.890625 58.714844 L 51.597656 58.714844 Z M 51.597656 56.066406 "/>
<path style=" stroke:none;fill-rule:nonzero;fill:url(#linear1);" d="M 9.261719 5.792969 L 54.246094 5.792969 C 55.707031 5.792969 56.890625 6.976562 56.890625 8.4375 L 56.890625 53.421875 C 56.890625 54.882812 55.707031 56.066406 54.246094 56.066406 L 9.261719 56.066406 C 7.800781 56.066406 6.613281 54.882812 6.613281 53.421875 L 6.613281 8.4375 C 6.613281 6.976562 7.800781 5.792969 9.261719 5.792969 Z M 9.261719 5.792969 "/>
<path style=" stroke:none;fill-rule:nonzero;fill:rgb(0%,0%,0%);fill-opacity:0.0784314;" d="M 26.75 30.929688 L 6.90625 50.777344 L 6.613281 50.777344 L 6.613281 53.421875 C 6.613281 54.886719 7.796875 56.066406 9.261719 56.066406 L 54.246094 56.066406 C 55.710938 56.066406 56.890625 54.886719 56.890625 53.421875 L 56.890625 50.777344 L 56.601562 50.777344 L 36.757812 30.929688 L 33.625 34.0625 C 32.585938 35.097656 30.917969 35.097656 29.882812 34.0625 Z M 26.75 30.929688 "/>
<path style=" stroke:none;fill-rule:nonzero;fill:rgb(90.196079%,90.196079%,90.196079%);fill-opacity:0.392157;" d="M 9.261719 5.984375 C 7.796875 5.984375 6.613281 7.164062 6.613281 8.628906 L 6.613281 8.960938 C 6.613281 7.496094 7.796875 6.3125 9.261719 6.3125 L 54.246094 6.3125 C 55.710938 6.3125 56.890625 7.496094 56.890625 8.960938 L 56.890625 8.628906 C 56.890625 7.164062 55.710938 5.984375 54.246094 5.984375 Z M 9.261719 5.984375 "/>
<path style=" stroke:none;fill-rule:nonzero;fill:rgb(0%,0%,0%);fill-opacity:0.196078;" d="M 9.261719 55.871094 C 7.796875 55.871094 6.613281 54.691406 6.613281 53.226562 L 6.613281 52.894531 C 6.613281 54.359375 7.796875 55.539062 9.261719 55.539062 L 54.246094 55.539062 C 55.710938 55.539062 56.890625 54.359375 56.890625 52.894531 L 56.890625 53.226562 C 56.890625 54.691406 55.710938 55.871094 54.246094 55.871094 Z M 9.261719 55.871094 "/>
<path style=" stroke:none;fill-rule:nonzero;fill:rgb(100%,100%,100%);fill-opacity:0.117647;" d="M 9.261719 5.792969 C 7.796875 5.792969 6.613281 6.972656 6.613281 8.4375 L 6.613281 11.085938 L 6.90625 11.085938 L 29.882812 34.0625 C 30.917969 35.097656 32.585938 35.097656 33.625 34.0625 L 56.601562 11.085938 L 56.890625 11.085938 L 56.890625 8.4375 C 56.890625 6.972656 55.710938 5.792969 54.246094 5.792969 Z M 9.261719 5.792969 "/>
<path style="fill:none;stroke-width:3;stroke-linecap:round;stroke-linejoin:miter;stroke:rgb(12.941177%,12.941177%,12.941177%);stroke-opacity:1;stroke-miterlimit:4;" d="M 74.086675 -168.660675 L 433.927312 -168.660675 C 445.613696 -168.660675 455.081542 -159.192829 455.081542 -147.506445 L 455.081542 212.334192 C 455.081542 224.020576 445.613696 233.488421 433.927312 233.488421 L 74.086675 233.488421 C 62.400291 233.488421 52.901198 224.020576 52.901198 212.334192 L 52.901198 -147.506445 C 52.901198 -159.192829 62.400291 -168.660675 74.086675 -168.660675 Z M 74.086675 -168.660675 " transform="matrix(0.125012,0,0,0.125012,0,26.877566)"/>
<path style=" stroke:none;fill-rule:nonzero;fill:url(#linear2);" d="M 24.476562 14.316406 C 23.480469 14.316406 22.628906 15.027344 22.449219 16.007812 L 20.457031 26.960938 L 29.210938 26.960938 L 29.699219 24.183594 C 29.957031 22.722656 31.769531 21.890625 32.78125 22.765625 L 37.722656 29.589844 C 38.121094 29.933594 38.289062 30.480469 38.171875 31.054688 C 38.0625 31.59375 37.710938 32.097656 37.222656 32.421875 L 29.875 39.242188 C 28.554688 40.117188 27.039062 39.285156 27.292969 37.828125 L 27.785156 35.050781 L 18.988281 35.050781 L 17.15625 45.113281 C 16.929688 46.378906 17.898438 47.542969 19.183594 47.542969 L 29.863281 47.542969 C 39.03125 47.542969 46.476562 40.097656 46.476562 30.929688 C 46.476562 21.761719 39.03125 14.316406 29.863281 14.316406 Z M 24.476562 14.316406 "/>
<path style=" stroke:none;fill-rule:nonzero;fill:rgb(100%,100%,100%);fill-opacity:0.392157;" d="M 24.476562 14.316406 C 23.480469 14.316406 22.628906 15.027344 22.449219 16.007812 L 20.457031 26.960938 L 20.621094 26.960938 L 22.449219 16.894531 C 22.628906 15.914062 23.480469 15.203125 24.476562 15.203125 L 29.863281 15.203125 C 38.882812 15.203125 46.234375 22.410156 46.46875 31.375 C 46.472656 31.226562 46.476562 31.078125 46.476562 30.929688 C 46.476562 21.761719 39.03125 14.316406 29.863281 14.316406 Z M 38.148438 31.152344 C 38.019531 31.65625 37.683594 32.117188 37.222656 32.421875 L 29.875 39.242188 C 28.796875 39.957031 27.589844 39.535156 27.320312 38.5625 L 27.292969 38.714844 C 27.039062 40.171875 28.554688 41.003906 29.875 40.128906 L 37.222656 33.308594 C 37.710938 32.984375 38.0625 32.480469 38.171875 31.941406 C 38.226562 31.664062 38.21875 31.394531 38.148438 31.152344 Z M 18.988281 35.050781 L 17.15625 45.113281 C 17.105469 45.394531 17.113281 45.667969 17.171875 45.925781 L 18.988281 35.9375 L 27.628906 35.9375 L 27.785156 35.050781 Z M 18.988281 35.050781 "/>
<path style=" stroke:none;fill-rule:nonzero;fill:rgb(0%,0%,0%);fill-opacity:0.235294;" d="M 31.789062 22.410156 C 30.871094 22.410156 29.886719 23.132812 29.699219 24.183594 L 29.210938 26.960938 L 20.699219 26.960938 L 20.457031 28.285156 L 29.210938 28.285156 L 29.699219 25.503906 C 29.957031 24.046875 31.769531 23.214844 32.78125 24.089844 L 37.722656 30.910156 C 37.875 31.042969 37.992188 31.203125 38.074219 31.382812 C 38.117188 31.273438 38.148438 31.164062 38.171875 31.054688 C 38.289062 30.480469 38.121094 29.933594 37.722656 29.589844 L 32.78125 22.765625 C 32.496094 22.519531 32.148438 22.410156 31.789062 22.410156 Z M 46.464844 31.589844 C 46.113281 40.453125 38.808594 47.542969 29.863281 47.542969 L 19.183594 47.542969 C 18.246094 47.542969 17.480469 46.925781 17.21875 46.101562 L 17.15625 46.4375 C 16.929688 47.703125 17.898438 48.867188 19.183594 48.867188 L 29.863281 48.867188 C 39.03125 48.867188 46.476562 41.421875 46.476562 32.253906 C 46.476562 32.03125 46.472656 31.8125 46.464844 31.589844 Z M 27.550781 36.371094 L 27.292969 37.828125 C 27.234375 38.160156 27.269531 38.457031 27.371094 38.710938 L 27.785156 36.371094 Z M 27.550781 36.371094 "/>
<path style="fill:none;stroke-width:11.338583;stroke-linecap:round;stroke-linejoin:round;stroke:rgb(12.941177%,12.941177%,12.941177%);stroke-opacity:1;stroke-miterlimit:4;" d="M 740.008112 432.832705 C 709.892876 432.832705 684.147302 454.326717 678.714749 483.969557 L 618.484277 815.119053 L 883.144057 815.119053 L 897.906427 731.150689 C 905.700959 686.981677 960.498879 661.826597 991.08651 688.280765 L 1140.481701 894.599656 C 1152.527795 904.992365 1157.60605 921.52622 1154.063081 938.886768 C 1150.75631 955.184425 1140.127404 970.419192 1125.365033 980.221406 L 903.220881 1186.422198 C 863.303431 1212.876366 817.481033 1187.721286 825.157465 1143.670373 L 840.037935 1059.702009 L 574.079067 1059.702009 L 518.690652 1363.924941 C 511.840912 1402.189006 541.129456 1437.382497 579.984015 1437.382497 L 902.866584 1437.382497 C 1180.044854 1437.382497 1405.14148 1212.285871 1405.14148 935.107601 C 1405.14148 657.929331 1180.044854 432.832705 902.866584 432.832705 Z M 740.008112 432.832705 " transform="matrix(0.0330761,0,0,0.0330761,0,0)"/>
</g>
</svg>
